public/img/prop-icon3.svg

<svg width="24" height="20" viewBox="0 0 24 20" fill="none" xmlns="http://www.w3.org/2000/svg">
<path d="M1.01628 9.04931C2.39373 7.02014 4.08047 5.39571 5.96662 4.28184C7.85278 3.16797 9.89604 2.58966 11.9633 2.58456C14.0306 2.57946 16.0755 3.1477 17.9648 4.25226C19.8541 5.35682 21.5454 6.97292 22.9286 8.99529C23.4549 9.75155 24.3058 8.6251 23.782 7.87202C22.2867 5.70189 20.4623 3.96864 18.4265 2.78418C16.3908 1.59972 14.1891 0.990364 11.9633 0.995454C9.73764 1.00054 7.53749 1.61997 5.50491 2.81373C3.47234 4.0075 1.65253 5.74908 0.162964 7.92603C-0.358443 8.68071 0.492464 9.80716 1.01628 9.04931Z" fill="black"/>
<path d="M4.58748 11.4364C5.58095 10.1158 6.78916 9.06048 8.13556 8.3374C9.48196 7.61432 10.9372 7.2392 12.4091 7.23582C13.8809 7.23244 15.3373 7.60086 16.6859 8.31774C18.0346 9.03462 19.2461 10.0843 20.2436 11.4004C20.7827 12.1129 21.6537 11.0493 21.1158 10.3398C20.0028 8.8859 18.655 7.72707 17.1567 6.9358C15.6584 6.14453 14.042 5.73785 12.4085 5.74123C10.775 5.74461 9.15969 6.15797 7.66364 6.95544C6.16759 7.7529 4.82301 8.91731 3.71406 10.3758C3.1799 11.0868 4.04961 12.1519 4.58748 11.4364Z" fill="black"/>
<path d="M8.08727 16.1334C8.57922 15.3002 9.17839 14.6341 9.84659 14.1776C10.5148 13.7211 11.2374 13.4842 11.9683 13.482C12.6992 13.4798 13.4224 13.7123 14.0917 14.1647C14.7611 14.6172 15.362 15.2796 15.856 16.1098C16.3716 16.9698 17.2015 15.6834 16.6883 14.8271C16.0841 13.83 15.3532 13.0354 14.541 12.4928C13.7289 11.9502 12.8529 11.6714 11.9677 11.6736C11.0826 11.6758 10.2072 11.9591 9.39621 12.5057C8.5852 13.0523 7.85594 13.8505 7.25389 14.8507C6.74304 15.7106 7.57406 16.997 8.08727 16.1334Z" fill="black"/>
<path d="M11.9749 19.9789C12.7096 19.9789 13.3052 19.1822 13.3052 18.1993C13.3052 17.2164 12.7096 16.4196 11.9749 16.4196C11.2402 16.4196 10.6445 17.2164 10.6445 18.1993C10.6445 19.1822 11.2402 19.9789 11.9749 19.9789Z" fill="black"/>
</svg>

<svg width="24" height="20" fill="none" xmlns="http://www.w3.org/2000/svg"><path d="M1.016 9.05c1.378-2.03 3.064-3.654 4.95-4.768 1.887-1.114 3.93-1.692 5.997-1.697 2.068-.006 4.113.563 6.002 1.667 1.89 1.105 3.58 2.72 4.964 4.743.526.757 1.377-.37.853-1.123-1.495-2.17-3.32-3.903-5.355-5.088C16.39 1.6 14.189.99 11.963.995c-2.225.006-4.426.625-6.458 1.819C3.472 4.008 1.653 5.749.163 7.926c-.521.755.33 1.881.853 1.123z" fill="#000"/><path d="M4.587 11.436c.994-1.32 2.202-2.376 3.549-3.099a9.05 9.05 0 014.273-1.101 9.04 9.04 0 014.277 1.082c1.349.717 2.56 1.766 3.558 3.082.539.713 1.41-.35.872-1.06-1.113-1.454-2.461-2.613-3.96-3.404A10.093 10.093 0 0012.41 5.74a10.103 10.103 0 00-4.745 1.214c-1.496.798-2.841 1.962-3.95 3.42-.534.712.336 1.777.873 1.061z" fill="#000"/><path d="M8.087 16.133c.492-.833 1.091-1.499 1.76-1.955.668-.457 1.39-.694 2.121-.696.731-.002 1.454.23 2.124.683.67.452 1.27 1.115 1.764 1.945.516.86 1.345-.427.832-1.283-.604-.997-1.335-1.792-2.147-2.334-.812-.543-1.688-.822-2.573-.82-.885.003-1.76.286-2.572.833-.81.546-1.54 1.345-2.142 2.345-.511.86.32 2.146.833 1.282z" fill="#000"/><path d="M11.975 19.979c.735 0 1.33-.797 1.33-1.78s-.595-1.78-1.33-1.78c-.735 0-1.33.797-1.33 1.78s.595 1.78 1.33 1.78z" fill="#000"/></svg>
